;FLAVOR:Marlin
;TIME:2272
;Filament used: 1.90845m
;Layer height: 0.2
;MINX:128.407
;MINY:134.021
;MINZ:0.2
;MAXX:171.593
;MAXY:166.063
;MAXZ:20
;Generated with Cura_SteamEngine 4.11.0
M140 S45
M105
M190 S45
M104 S210
M105
M109 S210
M82 ;absolute extrusion mode
M201 X500.00 Y500.00 Z100.00 E5000.00 ;Setup machine max acceleration
M203 X500.00 Y500.00 Z10.00 E50.00 ;Setup machine max feedrate
M204 P500.00 R1000.00 T500.00 ;Setup Print/Retract/Travel acceleration
M205 X8.00 Y8.00 Z0.40 E5.00 ;Setup Jerk
M220 S100 ;Reset Feedrate
M221 S100 ;Reset Flowrate

G28 ;Home

G92 E0 ;Reset Extruder
G1 Z2.0 F3000 ;Move Z Axis up
G1 X10.1 Y20 Z0.28 F5000.0 ;Move to start position
G1 X10.1 Y200.0 Z0.28 F1500.0 E15 ;Draw the first line
G1 X10.4 Y200.0 Z0.28 F5000.0 ;Move to side a little
G1 X10.4 Y20 Z0.28 F1500.0 E30 ;Draw the second line
G92 E0 ;Reset Extruder
G1 Z2.0 F3000 ;Move Z Axis up

G92 E0
G92 E0
G1 F1800 E-3
;LAYER_COUNT:100
;LAYER:0
M107 P1
;MESH:ANCLAJE STEPPER.stl
G0 F6000 X150 Y165.662 Z0.2
;TYPE:WALL-INNER
G1 F1800 E0
G1 F1500 X148.156 Y165.581 E0.06139
G1 X146.334 Y165.342 E0.12251
G1 X144.541 Y164.946 E0.18358
G1 X142.771 Y164.391 E0.24528
G1 X141.079 Y163.693 E0.30616
G1 X139.439 Y162.842 E0.36761
G1 X137.885 Y161.856 E0.42882
G1 X136.423 Y160.742 E0.48996
G1 X135.06 Y159.499 E0.55131
G1 X133.805 Y158.139 E0.61286
G1 X132.682 Y156.686 E0.67394
G1 X131.692 Y155.147 E0.7348
G1 X130.83 Y153.506 E0.79645
G1 X130.119 Y151.81 E0.85762
G1 X129.559 Y150.063 E0.91864
G1 X129.149 Y148.258 E0.9802
G1 X128.899 Y146.437 E1.04134
G1 X128.807 Y144.606 E1.10231
G1 X128.877 Y142.748 E1.16415
G1 X129.104 Y140.937 E1.22486
G1 X129.494 Y139.115 E1.28683
G1 X130.024 Y137.391 E1.34682
G1 X130.732 Y135.646 E1.40945
G1 X131.185 Y134.76 E1.44255
G1 X131.186 Y134.759 E1.4426
G1 X131.279 Y134.575 E1.44945
G1 X131.459 Y134.677 E1.45385
G1 X136.83 Y137.72 E1.65917
G1 X136.38 Y138.628 E1.69287
G1 X135.796 Y140.223 E1.74937
G1 X135.796 Y140.257 E1.7505
G1 X135.459 Y141.635 E1.79768
G1 X135.442 Y141.668 E1.79891
G1 X135.222 Y143.349 E1.8553
G1 X135.188 Y144.978 E1.90949
G1 X135.331 Y146.586 E1.96319
G1 X135.662 Y148.234 E2.0191
G1 X135.679 Y148.267 E2.02033
G1 X136.149 Y149.743 E2.07185
G1 X136.811 Y151.229 E2.12596
G1 X137.624 Y152.625 E2.17969
G1 X138.549 Y153.871 E2.2313
G1 X138.567 Y153.903 E2.23252
G1 X139.758 Y155.189 E2.29082
G1 X139.793 Y155.205 E2.2921
G1 X140.964 Y156.219 E2.34362
G1 X140.996 Y156.235 E2.34481
G1 X142.195 Y157.063 E2.39328
G1 X142.219 Y157.086 E2.39438
G1 X143.71 Y157.889 E2.45071
G1 X145.289 Y158.527 E2.50735
G1 X145.324 Y158.527 E2.50851
G1 X146.694 Y158.911 E2.55584
G1 X146.724 Y158.926 E2.55695
G1 X148.396 Y159.202 E2.61332
G1 X150.002 Y159.29 E2.66681
G1 X151.627 Y159.201 E2.72094
G1 X153.3 Y158.921 E2.77736
G1 X153.329 Y158.905 E2.77846
G1 X154.69 Y158.522 E2.82549
G1 X154.725 Y158.522 E2.82665
G1 X156.305 Y157.884 E2.88332
G1 X157.878 Y157.034 E2.94279
G1 X157.895 Y157.001 E2.94403
G1 X159.069 Y156.192 E2.99145
G1 X160.218 Y155.195 E3.04204
G1 X160.253 Y155.179 E3.04332
G1 X161.447 Y153.887 E3.10184
G1 X161.461 Y153.859 E3.10288
G1 X162.387 Y152.607 E3.15467
G1 X163.202 Y151.203 E3.20867
G1 X163.857 Y149.727 E3.26237
G1 X164.322 Y148.258 E3.31362
G1 X164.339 Y148.227 E3.3148
G1 X164.671 Y146.579 E3.37071
G1 X164.812 Y144.948 E3.42516
G1 X164.777 Y143.333 E3.47889
G1 X164.556 Y141.66 E3.53502
G1 X164.539 Y141.624 E3.53634
G1 X164.2 Y140.246 E3.58354
G1 X164.2 Y140.208 E3.5848
G1 X163.615 Y138.614 E3.64128
G1 X163.171 Y137.719 E3.67451
G1 X168.541 Y134.677 E3.87978
G1 X168.721 Y134.575 E3.88666
G1 X168.814 Y134.759 E3.89104
G1 X168.815 Y134.76 E3.89109
G1 X169.274 Y135.659 E3.92466
G1 X169.976 Y137.391 E3.98682
G1 X170.506 Y139.115 E4.04681
G1 X170.896 Y140.935 E4.10872
G1 X171.123 Y142.748 E4.16949
G1 X171.192 Y144.594 E4.23093
G1 X171.099 Y146.449 E4.2927
G1 X170.851 Y148.258 E4.35343
G1 X170.441 Y150.063 E4.415
G1 X169.881 Y151.81 E4.47601
G1 X169.17 Y153.506 E4.53718
G1 X168.308 Y155.147 E4.59883
G1 X167.318 Y156.686 E4.6597
G1 X166.195 Y158.139 E4.72077
G1 X164.94 Y159.499 E4.78232
G1 X163.577 Y160.742 E4.84368
G1 X162.115 Y161.856 E4.90481
G1 X160.561 Y162.842 E4.96602
G1 X158.921 Y163.693 E5.02748
G1 X157.229 Y164.391 E5.08835
G1 X155.459 Y164.946 E5.15005
G1 X153.666 Y165.342 E5.21112
G1 X151.844 Y165.581 E5.27224
G1 X150 Y165.662 E5.33363
G0 F6000 X150 Y166.063
;TYPE:WALL-OUTER
G1 F1500 X148.121 Y165.98 E5.39619
G1 X146.265 Y165.737 E5.45845
G1 X144.437 Y165.333 E5.52071
G1 X142.639 Y164.769 E5.58339
G1 X140.912 Y164.057 E5.64552
G1 X139.237 Y163.188 E5.70828
G1 X137.654 Y162.184 E5.77063
G1 X136.169 Y161.051 E5.83275
G1 X134.779 Y159.784 E5.89531
G1 X133.499 Y158.397 E5.95808
G1 X132.358 Y156.921 E6.02013
G1 X131.344 Y155.344 E6.08249
G1 X130.466 Y153.673 E6.14528
G1 X129.744 Y151.951 E6.20738
G1 X129.173 Y150.169 E6.26962
G1 X128.756 Y148.332 E6.33227
G1 X128.501 Y146.478 E6.39452
G1 X128.407 Y144.6 E6.45706
G1 X128.478 Y142.717 E6.51973
G1 X128.709 Y140.873 E6.58154
G1 X129.106 Y139.019 E6.6446
G1 X129.649 Y137.25 E6.70615
G1 X130.364 Y135.488 E6.7694
G1 X131.113 Y134.021 E6.82418
G1 X137.356 Y137.558 E7.06283
G1 X136.748 Y138.786 E7.10841
G1 X136.196 Y140.294 E7.16182
G1 X136.196 Y140.307 E7.16225
G1 X135.837 Y141.773 E7.21245
G1 X135.83 Y141.787 E7.21297
G1 X135.621 Y143.379 E7.26638
G1 X135.588 Y144.964 E7.31911
G1 X135.727 Y146.529 E7.37136
G1 X136.044 Y148.103 E7.42476
G1 X136.049 Y148.113 E7.42514
G1 X136.523 Y149.6 E7.47705
G1 X137.168 Y151.046 E7.52971
G1 X137.959 Y152.405 E7.58201
G1 X138.888 Y153.657 E7.63386
G1 X138.894 Y153.668 E7.63428
G1 X139.998 Y154.859 E7.68829
G1 X140.011 Y154.865 E7.68877
G1 X141.188 Y155.884 E7.74055
G1 X141.198 Y155.889 E7.74092
G1 X142.453 Y156.755 E7.79163
G1 X142.46 Y156.762 E7.79196
G1 X143.88 Y157.526 E7.84559
G1 X145.367 Y158.127 E7.89894
G1 X145.379 Y158.127 E7.89934
G1 X146.841 Y158.537 E7.94984
G1 X146.849 Y158.541 E7.95014
G1 X148.44 Y158.804 E8.00377
G1 X150.002 Y158.889 E8.0558
G1 X151.583 Y158.803 E8.10846
G1 X153.166 Y158.538 E8.16185
G1 X153.175 Y158.533 E8.16219
G1 X154.635 Y158.122 E8.21264
G1 X154.647 Y158.122 E8.21304
G1 X156.135 Y157.521 E8.26641
G1 X157.577 Y156.742 E8.32092
G1 X157.583 Y156.73 E8.32137
G1 X158.824 Y155.875 E8.37149
G1 X160 Y154.855 E8.42327
G1 X160.013 Y154.849 E8.42375
G1 X161.115 Y153.657 E8.47774
G1 X161.12 Y153.647 E8.47811
G1 X162.052 Y152.387 E8.53024
G1 X162.845 Y151.021 E8.58277
G1 X163.482 Y149.585 E8.63502
G1 X163.953 Y148.1 E8.68684
G1 X163.959 Y148.089 E8.68726
G1 X164.274 Y146.522 E8.74042
G1 X164.412 Y144.935 E8.7934
G1 X164.378 Y143.364 E8.84566
G1 X164.167 Y141.773 E8.89904
G1 X164.161 Y141.76 E8.89952
G1 X163.8 Y140.293 E8.94977
G1 X163.8 Y140.279 E8.95023
G1 X163.247 Y138.772 E9.00362
G1 X162.644 Y137.558 E9.04871
G1 X168.887 Y134.021 E9.28736
G1 X169.64 Y135.496 E9.34244
G1 X170.351 Y137.25 E9.40539
G1 X170.894 Y139.019 E9.46694
G1 X171.291 Y140.871 E9.52994
G1 X171.522 Y142.717 E9.59181
G1 X171.593 Y144.599 E9.65445
G1 X171.499 Y146.478 E9.71703
G1 X171.244 Y148.332 E9.77927
G1 X170.827 Y150.169 E9.84193
G1 X170.256 Y151.951 E9.90416
G1 X169.534 Y153.673 E9.96627
G1 X168.656 Y155.344 E10.02905
G1 X167.642 Y156.921 E10.09141
G1 X166.501 Y158.397 E10.15346
G1 X165.221 Y159.784 E10.21623
G1 X163.831 Y161.051 E10.27879
G1 X162.346 Y162.184 E10.34091
G1 X160.763 Y163.188 E10.40326
G1 X159.088 Y164.057 E10.46602
G1 X157.361 Y164.769 E10.52815
G1 X155.563 Y165.333 E10.59083
G1 X153.735 Y165.737 E10.6531
G1 X151.879 Y165.98 E10.71535
G1 X150 Y166.063 E10.77791
G0 F6000 X150 Y165.623
G0 X150 Y165.272
;TYPE:SKIN
G1 F1500 X148.179 Y165.191 E10.83854
G1 X146.409 Y164.959 E10.89791
G1 X144.639 Y164.568 E10.9582
G1 X142.906 Y164.025 E11.0186
G1 X141.251 Y163.342 E11.07815
G1 X139.623 Y162.497 E11.13916
G1 X138.106 Y161.535 E11.1989
G1 X136.677 Y160.445 E11.25868
G1 X135.341 Y159.227 E11.31881
G1 X134.092 Y157.874 E11.38006
G1 X133.006 Y156.469 E11.43912
G1 X132.026 Y154.945 E11.49938
G1 X131.179 Y153.332 E11.55998
G1 X130.487 Y151.681 E11.61952
G1 X129.934 Y149.956 E11.67977
G1 X129.533 Y148.188 E11.74007
G1 X129.288 Y146.401 E11.80006
G1 X129.197 Y144.598 E11.8601
G1 X129.266 Y142.78 E11.92061
G1 X129.489 Y141.003 E11.98018
G1 X129.874 Y139.207 E12.04127
G1 X130.397 Y137.506 E12.10046
G1 X131.083 Y135.814 E12.16119
G1 X131.441 Y135.115 E12.18731
G1 X136.317 Y137.878 E12.37371
G1 X136.021 Y138.474 E12.39584
G1 X135.406 Y140.154 E12.45535
G1 X135.406 Y140.209 E12.45718
G1 X135.091 Y141.498 E12.50131
G1 X135.064 Y141.55 E12.50326
G1 X134.832 Y143.32 E12.56263
G1 X134.798 Y144.991 E12.61822
G1 X134.945 Y146.642 E12.67335
G1 X135.29 Y148.365 E12.7318
G1 X135.316 Y148.415 E12.73367
G1 X135.784 Y149.882 E12.78489
G1 X136.464 Y151.407 E12.84042
G1 X137.298 Y152.84 E12.89557
G1 X138.223 Y154.087 E12.94721
G1 X138.249 Y154.134 E12.949
G1 X139.524 Y155.511 E13.01141
G1 X139.581 Y155.537 E13.0135
G1 X140.746 Y156.547 E13.06478
G1 X140.797 Y156.572 E13.06667
G1 X141.949 Y157.368 E13.11324
G1 X141.987 Y157.404 E13.11498
G1 X143.544 Y158.242 E13.17379
G1 X145.213 Y158.917 E13.23367
G1 X145.269 Y158.917 E13.23553
G1 X146.557 Y159.278 E13.28002
G1 X146.604 Y159.301 E13.28176
G1 X148.353 Y159.59 E13.34072
G1 X150.002 Y159.68 E13.39565
G1 X151.67 Y159.589 E13.45121
G1 X153.43 Y159.295 E13.51056
G1 X153.477 Y159.269 E13.51235
G1 X154.745 Y158.912 E13.55616
G1 X154.801 Y158.912 E13.55802
G1 X156.471 Y158.237 E13.61793
G1 X158.168 Y157.321 E13.68207
G1 X158.196 Y157.267 E13.6841
G1 X159.309 Y156.5 E13.72905
G1 X160.43 Y155.527 E13.77843
G1 X160.487 Y155.501 E13.78051
G1 X161.772 Y154.11 E13.84349
G1 X161.794 Y154.064 E13.84519
G1 X162.713 Y152.822 E13.89658
G1 X163.549 Y151.38 E13.95202
G1 X164.222 Y149.865 E14.00715
G1 X164.683 Y148.409 E14.05795
G1 X164.709 Y148.362 E14.05974
G1 X165.057 Y146.634 E14.11836
G1 X165.202 Y144.96 E14.17425
G1 X165.167 Y143.303 E14.22937
G1 X164.935 Y141.549 E14.28822
G1 X164.909 Y141.493 E14.29027
G1 X164.59 Y140.197 E14.33467
G1 X164.59 Y140.138 E14.33663
G1 X163.974 Y138.46 E14.39608
G1 X163.684 Y137.877 E14.41774
G1 X168.559 Y135.115 E14.6041
G1 X168.918 Y135.819 E14.63038
G1 X169.603 Y137.506 E14.69094
G1 X170.126 Y139.207 E14.75013
G1 X170.511 Y141.001 E14.81115
G1 X170.734 Y142.779 E14.87075
G1 X170.802 Y144.588 E14.93096
G1 X170.71 Y146.412 E14.99171
G1 X170.467 Y148.188 E15.05133
G1 X170.066 Y149.956 E15.11163
G1 X169.513 Y151.681 E15.17188
G1 X168.821 Y153.332 E15.23142
G1 X167.974 Y154.945 E15.29201
G1 X166.994 Y156.469 E15.35228
G1 X165.908 Y157.874 E15.41134
G1 X164.659 Y159.227 E15.47258
G1 X163.323 Y160.445 E15.53271
G1 X161.894 Y161.535 E15.59249
G1 X160.377 Y162.497 E15.65224
G1 X158.749 Y163.342 E15.71324
G1 X157.094 Y164.025 E15.77279
G1 X155.361 Y164.568 E15.83319
G1 X153.591 Y164.959 E15.89348
G1 X151.821 Y165.191 E15.95286
G1 X150 Y165.272 E16.01348
G0 F6000 X149.988 Y165.55
G0 X148.166 Y165.41
G0 X146.366 Y165.174
G0 X144.583 Y164.781
G0 X142.831 Y164.231
G0 X141.151 Y163.538
G0 X139.527 Y162.695
G0 X137.981 Y161.714
G0 X136.536 Y160.614
G0 X135.765 Y159.911
G0 X133.85 Y158.019
G0 X134.357 Y157.628
G1 F1500 X135.599 Y158.973 E16.07438
G1 X136.914 Y160.172 E16.13356
G1 X137.188 Y160.381 E16.14503
G1 X134.093 Y157.286 E16.2906
G0 F6000 X133.586 Y157.677
G0 X134.872 Y159.049
G0 X136.8 Y160.89
G0 X137.188 Y160.381
G1 F1500 X138.306 Y161.235 E16.3374
G1 X139.129 Y161.757 E16.36981
G1 X132.702 Y155.33 E16.67212
G1 X132.335 Y154.758 E16.69472
G1 X131.935 Y153.997 E16.72332
G1 X140.466 Y162.527 E17.12457
G1 X141.407 Y163.016 E17.15984
G1 X141.599 Y163.095 E17.16674
G1 X131.377 Y152.873 E17.64755
G1 X130.969 Y151.899 E17.68268
G1 X142.561 Y163.492 E18.22795
G1 X143.024 Y163.683 E18.24461
G1 X143.452 Y163.817 E18.25953
G1 X130.652 Y151.016 E18.86162
G1 X130.384 Y150.183 E18.89073
G1 X144.276 Y164.075 E19.54416
G1 X144.742 Y164.222 E19.56042
G1 X145.058 Y164.291 E19.57117
G1 X130.18 Y149.413 E20.27099
G1 X130.014 Y148.681 E20.29595
G1 X145.784 Y164.451 E21.03773
G1 X146.463 Y164.602 E21.06086
G1 X146.505 Y164.607 E21.06227
G1 X129.867 Y147.969 E21.84487
G1 X129.777 Y147.313 E21.86689
G1 X147.155 Y164.692 E22.68432
G1 X147.807 Y164.777 E22.70619
G1 X129.687 Y146.658 E23.55848
G1 X129.647 Y146.361 E23.56845
G1 X129.63 Y146.035 E23.5793
G1 X138.134 Y154.538 E23.97928
G1 X139.309 Y155.807 E24.0368
G1 X139.382 Y155.841 E24.03948
G0 F6000 X139.784 Y156.189
G1 F1500 X148.435 Y164.84 E24.4464
G1 X149.027 Y164.866 E24.46611
G1 X141.955 Y157.795 E24.79873
G1 X143.18 Y158.454 E24.84499
G1 X149.62 Y164.893 E25.14789
G1 X149.999 Y164.911 E25.16051
G1 X150.194 Y164.902 E25.167
G1 X144.178 Y158.886 E25.44998
G1 X145.128 Y159.27 E25.48406
G1 X150.735 Y164.877 E25.74779
G1 X151.277 Y164.853 E25.76584
G1 X145.887 Y159.463 E26.01937
G1 X146.424 Y159.613 E26.03791
G1 X146.493 Y159.647 E26.04047
G1 X146.664 Y159.675 E26.04623
G1 X151.815 Y164.826 E26.28852
G1 X152.316 Y164.761 E26.30532
G1 X147.342 Y159.787 E26.53928
G1 X148.02 Y159.899 E26.56214
G1 X152.816 Y164.695 E26.78773
G1 X153.317 Y164.63 E26.80453
G1 X148.652 Y159.965 E27.02396
G1 X149.25 Y159.998 E27.04388
G1 X153.796 Y164.544 E27.25771
G1 X154.259 Y164.441 E27.27349
G1 X149.848 Y160.03 E27.48097
G1 X150.002 Y160.038 E27.48609
G1 X150.4 Y160.017 E27.49935
G1 X154.722 Y164.339 E27.70264
G1 X155.186 Y164.237 E27.71845
G1 X150.937 Y159.988 E27.91831
G1 X151.474 Y159.959 E27.93619
G1 X155.622 Y164.107 E28.1313
G1 X156.052 Y163.972 E28.14629
G1 X151.981 Y159.9 E28.3378
G1 X152.466 Y159.82 E28.35415
G1 X156.483 Y163.837 E28.5431
G1 X156.914 Y163.702 E28.55812
G1 X152.951 Y159.739 E28.74453
G1 X153.435 Y159.658 E28.76085
G1 X157.318 Y163.541 E28.94349
G1 X157.719 Y163.376 E28.95792
G1 X153.874 Y159.531 E29.13877
G1 X154.316 Y159.407 E29.15404
G1 X158.119 Y163.21 E29.33292
G1 X158.52 Y163.046 E29.34733
G1 X154.757 Y159.282 E29.52436
G1 X154.795 Y159.271 E29.52567
G1 X154.871 Y159.27 E29.5282
G1 X155.184 Y159.144 E29.53942
G1 X158.897 Y162.857 E29.71407
G1 X159.27 Y162.664 E29.72804
G1 X155.587 Y158.981 E29.90128
G1 X155.99 Y158.819 E29.91572
G1 X159.642 Y162.471 E30.0875
G1 X160.014 Y162.277 E30.10146
G1 X156.392 Y158.655 E30.27182
G1 X156.623 Y158.562 E30.28011
G1 X156.781 Y158.478 E30.28606
G1 X160.373 Y162.07 E30.45501
G1 X160.72 Y161.851 E30.46866
G1 X157.148 Y158.28 E30.63665
G1 X157.516 Y158.082 E30.65055
G1 X161.066 Y161.632 E30.81753
G1 X161.412 Y161.412 E30.83117
G1 X157.883 Y157.883 E30.99716
G1 X158.251 Y157.685 E31.01106
G1 X161.754 Y161.188 E31.17583
G1 X162.075 Y160.943 E31.18926
G1 X158.575 Y157.443 E31.35389
G1 X158.909 Y157.212 E31.3674
G1 X162.395 Y160.698 E31.53137
G1 X162.716 Y160.453 E31.5448
G1 X159.244 Y156.981 E31.70811
G1 X159.529 Y156.784 E31.71964
G1 X159.574 Y156.746 E31.7216
G1 X163.037 Y160.209 E31.88449
G1 X163.084 Y160.173 E31.88646
G1 X163.336 Y159.942 E31.89783
G1 X159.877 Y156.483 E32.06053
G1 X160.18 Y156.221 E32.07385
G1 X163.632 Y159.673 E32.23622
G1 X163.928 Y159.403 E32.24955
G1 X160.483 Y155.958 E32.41159
G1 X160.626 Y155.833 E32.41791
G1 X160.702 Y155.798 E32.42069
G1 X160.791 Y155.7 E32.42509
G1 X164.224 Y159.133 E32.58657
G1 X164.399 Y158.974 E32.59443
G1 X164.511 Y158.854 E32.59989
G1 X161.063 Y155.406 E32.76208
G1 X161.335 Y155.113 E32.77537
G1 X164.782 Y158.56 E32.93751
G1 X165.054 Y158.266 E32.95083
G1 X161.607 Y154.818 E33.11299
G1 X161.878 Y154.524 E33.12629
G1 X165.325 Y157.971 E33.28843
G1 X165.597 Y157.677 E33.30175
G1 X162.131 Y154.211 E33.46478
G1 X162.371 Y153.886 E33.47822
G1 X165.848 Y157.363 E33.64176
G1 X166.094 Y157.043 E33.65519
G1 X162.611 Y153.56 E33.81902
G1 X162.852 Y153.235 E33.83247
G1 X166.341 Y156.724 E33.99659
G1 X166.587 Y156.404 E34.01001
G1 X163.082 Y152.899 E34.17488
G1 X163.29 Y152.542 E34.18862
G1 X166.819 Y156.071 E34.35461
G1 X167.041 Y155.727 E34.36823
G1 X163.497 Y152.183 E34.53493
G1 X163.705 Y151.825 E34.5487
G1 X167.263 Y155.383 E34.71606
G1 X167.484 Y155.039 E34.72965
G1 X163.905 Y151.46 E34.898
G1 X164.079 Y151.069 E34.91223
G1 X167.7 Y154.69 E35.08255
G1 X167.895 Y154.318 E35.09652
G1 X164.253 Y150.677 E35.26781
G1 X164.427 Y150.285 E35.28207
