;FLAVOR:Marlin
;TIME:21162
;Filament used: 20.3767m
;Layer height: 0.2
;MINX:84.693
;MINY:85.066
;MINZ:0.2
;MAXX:214.929
;MAXY:214.934
;MAXZ:70.4
;Generated with Cura_SteamEngine 4.11.0
M140 S45
M105
M190 S45
M104 S210
M105
M109 S210
M82 ;absolute extrusion mode
M201 X500.00 Y500.00 Z100.00 E5000.00 ;Setup machine max acceleration
M203 X500.00 Y500.00 Z10.00 E50.00 ;Setup machine max feedrate
M204 P500.00 R1000.00 T500.00 ;Setup Print/Retract/Travel acceleration
M205 X8.00 Y8.00 Z0.40 E5.00 ;Setup Jerk
M220 S100 ;Reset Feedrate
M221 S100 ;Reset Flowrate

G28 ;Home

G92 E0 ;Reset Extruder
G1 Z2.0 F3000 ;Move Z Axis up
G1 X10.1 Y20 Z0.28 F5000.0 ;Move to start position
G1 X10.1 Y200.0 Z0.28 F1500.0 E15 ;Draw the first line
G1 X10.4 Y200.0 Z0.28 F5000.0 ;Move to side a little
G1 X10.4 Y20 Z0.28 F1500.0 E30 ;Draw the second line
G92 E0 ;Reset Extruder
G1 Z2.0 F3000 ;Move Z Axis up

G92 E0
G92 E0
G1 F1800 E-3
;LAYER_COUNT:352
;LAYER:0
M107 P1
G0 F6000 X148.207 Y147.532 Z0.2
;TYPE:SKIRT
G1 F1800 E0
G1 F1200 X148.407 Y147.345 E0.00911
G1 X148.853 Y147.286 E0.02407
G1 X149.033 Y147.38 E0.03082
G1 X148.7 Y147.41 E0.04194
G1 X148.207 Y147.532 E0.05884
G0 F6000 X148.227 Y146.965
G1 F1200 X148.932 Y146.872 E0.08249
G1 X148.952 Y146.886 E0.0833
G1 X149.201 Y147.018 E0.09267
G1 X149.477 Y147.076 E0.10205
G1 X149.759 Y147.054 E0.11146
G1 X150.023 Y146.954 E0.12085
G1 X150.238 Y146.795 E0.12975
G1 X150.573 Y146.469 E0.14529
G1 X150.591 Y146.469 E0.14589
G1 X152.689 Y147.677 E0.22641
G1 X153.394 Y149.192 E0.28199
G1 X153.601 Y149.991 E0.30944
G1 X153.566 Y150.1 E0.31325
G1 X153.139 Y150.456 E0.33174
G1 X152.983 Y150.628 E0.33946
G1 X153.051 Y150.402 E0.34731
G1 X153.053 Y150.119 E0.35673
G1 X152.976 Y149.848 E0.3661
G1 X152.826 Y149.609 E0.37548
G1 X152.616 Y149.421 E0.38486
G1 X152.361 Y149.3 E0.39424
G1 X152.255 Y149.283 E0.39781
G1 X152.338 Y149.244 E0.40086
G1 X152.551 Y149.058 E0.41027
G1 X152.703 Y148.821 E0.41963
G1 X152.783 Y148.55 E0.42903
G1 X152.785 Y148.268 E0.43841
G1 X152.707 Y147.997 E0.44779
G1 X152.557 Y147.758 E0.45718
G1 X152.372 Y147.589 E0.46551
G1 X152.07 Y147.375 E0.47782
G1 X151.819 Y147.246 E0.48721
G1 X151.542 Y147.192 E0.49659
G1 X151.261 Y147.218 E0.50598
G1 X150.999 Y147.321 E0.51534
G1 X150.798 Y147.471 E0.52368
G1 X150.571 Y147.69 E0.53418
G1 X150.397 Y147.913 E0.54358
G1 X150.293 Y148.175 E0.55296
G1 X150.266 Y148.456 E0.56235
G1 X150.319 Y148.733 E0.57173
G1 X150.447 Y148.985 E0.58113
G1 X150.64 Y149.19 E0.59049
G1 X150.882 Y149.334 E0.59986
G1 X151.274 Y149.41 E0.61314
G1 X151.533 Y149.408 E0.62175
G1 X151.322 Y149.581 E0.63083
G1 X150.815 Y150.138 E0.65588
G1 X150.657 Y150.371 E0.66524
G1 X150.57 Y150.64 E0.67465
G1 X150.561 Y150.922 E0.68403
G1 X150.604 Y151.121 E0.6908
G1 X150.708 Y151.44 E0.70196
G1 X150.833 Y151.693 E0.71135
G1 X151.023 Y151.902 E0.72074
G1 X151.264 Y152.049 E0.73013
G1 X151.536 Y152.122 E0.7395
G1 X151.818 Y152.117 E0.74888
G1 X152.087 Y152.034 E0.75824
G1 X152.323 Y151.878 E0.76765
G1 X152.567 Y151.548 E0.7813
G1 X152.809 Y151.021 E0.80059
G1 X152.779 Y151.197 E0.80653
G1 X152.828 Y151.535 E0.81789
G1 X152.916 Y151.804 E0.8273
G1 X152.605 Y152.428 E0.85049
G1 X150.944 Y153.415 E0.91475
G1 X149.55 Y153.442 E0.96113
G1 X147.011 Y151.913 E1.0597
G1 X146.506 Y150.387 E1.11317
G1 X146.962 Y148.149 E1.18913
G1 X148.227 Y146.965 E1.24676
G0 F6000 X148.047 Y146.586
G1 F1200 X149.039 Y146.454 E1.28005
G1 X149.384 Y146.657 E1.29336
G1 X149.602 Y146.675 E1.30063
G1 X149.811 Y146.614 E1.30788
G1 X149.959 Y146.508 E1.31393
G1 X150.41 Y146.069 E1.33486
G1 X150.699 Y146.069 E1.34448
G1 X152.998 Y147.393 E1.43272
G1 X153.772 Y149.054 E1.49366
G1 X154.018 Y150.006 E1.52637
G1 X153.912 Y150.332 E1.53777
G1 X153.395 Y150.763 E1.56016
G1 X153.255 Y150.931 E1.56743
G1 X153.185 Y151.138 E1.5747
G1 X153.209 Y151.41 E1.58378
G1 X153.347 Y151.834 E1.59861
G1 X152.91 Y152.712 E1.63123
G1 X151.057 Y153.813 E1.70292
G1 X149.442 Y153.844 E1.75664
G1 X146.68 Y152.181 E1.86387
G1 X146.093 Y150.409 E1.92596
G1 X146.595 Y147.945 E2.0096
G1 X148.047 Y146.586 E2.07574
G0 F6000 X147.869 Y146.205
G1 F1200 X149.144 Y146.037 E2.11852
G1 X149.423 Y146.24 E2.12999
G1 X149.542 Y146.278 E2.13415
G1 X149.68 Y146.221 E2.13911
G1 X150.247 Y145.669 E2.16543
G1 X150.806 Y145.669 E2.18403
G1 X153.308 Y147.11 E2.28006
G1 X154.149 Y148.915 E2.34629
G1 X154.435 Y150.019 E2.38422
G1 X154.256 Y150.566 E2.40336
G1 X153.651 Y151.07 E2.42955
G1 X153.585 Y151.176 E2.43371
G1 X153.589 Y151.286 E2.43737
G1 X153.779 Y151.866 E2.45767
G1 X153.215 Y152.996 E2.49967
G1 X151.171 Y154.211 E2.57876
G1 X149.334 Y154.246 E2.63987
G1 X146.346 Y152.448 E2.75586
G1 X145.68 Y150.434 E2.82641
G1 X146.228 Y147.741 E2.91782
G1 X147.869 Y146.205 E2.99257
G0 F6000 X149.533 Y147.469
G1 F1200 X149.664 Y147.473 E2.99693
G1 X149.991 Y147.404 E3.00805
G1 X150.292 Y147.26 E3.01915
G1 X150.517 Y147.081 E3.02871
G1 X150.642 Y146.96 E3.0345
G1 X150.725 Y147.02 E3.0379
G1 X150.52 Y147.183 E3.04661
G1 X150.293 Y147.402 E3.0571
G1 X150.082 Y147.661 E3.06822
G1 X150.02 Y147.772 E3.07244
G1 X149.756 Y147.568 E3.08354
G1 X149.533 Y147.469 E3.09166
G0 F6000 X150.494 Y149.567
G1 F1200 X150.691 Y149.681 E3.09923
G1 X150.52 Y149.869 E3.10768
G1 X150.326 Y150.141 E3.11879
G1 X150.311 Y150.178 E3.12012
G1 X150.194 Y150.094 E3.12491
G1 X150.306 Y149.97 E3.13047
G1 X150.465 Y149.676 E3.14158
G1 X150.494 Y149.567 E3.14534
G0 F6000 X151.024 Y152.368
G1 F1200 X151.247 Y152.468 E3.15346
G1 X151.575 Y152.528 E3.16455
G1 X151.664 Y152.523 E3.16752
G1 X150.833 Y153.017 E3.19967
G1 X150.603 Y153.021 E3.20732
G1 X150.646 Y152.99 E3.20909
G1 X150.861 Y152.734 E3.22021
G1 X151.009 Y152.435 E3.2313
G1 X151.024 Y152.368 E3.23359
G0 F6000 X146.972 Y150.521
G1 F1200 X147.14 Y150.657 E3.24078
G1 X147.442 Y150.798 E3.25186
G1 X147.533 Y150.817 E3.25495
G1 X147.504 Y150.858 E3.25662
G1 X147.383 Y151.17 E3.26775
G1 X147.339 Y151.501 E3.27886
G1 X147.345 Y151.648 E3.28375
G1 X146.972 Y150.521 E3.32324
G1 F1800 E0.32324
;MESH:BASE SUPERIOR.stl
G0 F6000 X148.7 Y155.192
G0 X148.438 Y156.226
G0 X149.462 Y156.6
;TYPE:WALL-INNER
G1 F1800 E3.32324
G1 F1500 X150.559 Y156.6 E3.35972
G1 X151.634 Y156.42 E3.39598
G1 X152.593 Y156.091 E3.4297
G1 X152.652 Y156.076 E3.43172
G1 X153.666 Y155.527 E3.47007
G1 X153.702 Y155.491 E3.47177
G1 X154.493 Y154.876 E3.50509
G1 X155.236 Y154.07 E3.54155
G1 X155.851 Y153.129 E3.57894
G1 X155.871 Y153.068 E3.58108
G1 X156.27 Y152.159 E3.61409
G1 X156.542 Y151.097 E3.65056
G1 X156.631 Y150.027 E3.68627
G1 X156.631 Y149.973 E3.68806
G1 X156.542 Y148.903 E3.72377
G1 X156.27 Y147.841 E3.76024
G1 X155.867 Y146.922 E3.79361
G1 X155.85 Y146.869 E3.79546
G1 X155.236 Y145.93 E3.83278
G1 X154.493 Y145.124 E3.86924
G1 X153.702 Y144.509 E3.90256
G1 X153.666 Y144.473 E3.90426
G1 X152.652 Y143.924 E3.94261
G1 X152.593 Y143.909 E3.94463
G1 X151.634 Y143.58 E3.97836
G1 X150.559 Y143.4 E4.01461
G1 X149.462 Y143.4 E4.05109
G1 X148.388 Y143.58 E4.08731
G1 X147.429 Y143.909 E4.12104
G1 X147.37 Y143.924 E4.12306
G1 X146.356 Y144.473 E4.16141
G1 X146.32 Y144.509 E4.16311
G1 X145.529 Y145.124 E4.19643
G1 X144.786 Y145.93 E4.23289
G1 X144.172 Y146.869 E4.27021
G1 X144.155 Y146.922 E4.27206
G1 X143.752 Y147.841 E4.30543
G1 X143.48 Y148.903 E4.3419
G1 X143.391 Y149.973 E4.37761
G1 X143.391 Y150.027 E4.3794
G1 X143.48 Y151.097 E4.41511
G1 X143.752 Y152.159 E4.45158
G1 X144.151 Y153.068 E4.48459
G1 X144.171 Y153.129 E4.48673
G1 X144.786 Y154.07 E4.52412
G1 X145.529 Y154.876 E4.56058
G1 X146.32 Y155.491 E4.5939
G1 X146.356 Y155.527 E4.5956
G1 X147.37 Y156.076 E4.63395
G1 X147.429 Y156.091 E4.63597
G1 X148.388 Y156.42 E4.66969
G1 X149.462 Y156.6 E4.70591
G0 F6000 X149.495 Y156.2
;TYPE:WALL-OUTER
G1 F1500 X150.526 Y156.2 E4.74021
G1 X151.535 Y156.031 E4.77423
G1 X152.481 Y155.707 E4.80749
G1 X152.504 Y155.701 E4.80828
G1 X153.424 Y155.203 E4.84308
G1 X153.435 Y155.192 E4.84359
G1 X154.221 Y154.581 E4.87671
G1 X154.919 Y153.823 E4.91098
G1 X155.487 Y152.955 E4.94548
G1 X155.496 Y152.927 E4.94646
G1 X155.891 Y152.028 E4.97912
G1 X156.146 Y151.03 E5.01338
G1 X156.231 Y150.01 E5.04742
G1 X156.231 Y149.99 E5.04809
G1 X156.146 Y148.97 E5.08213
G1 X155.891 Y147.972 E5.11639
G1 X155.495 Y147.069 E5.14918
G1 X155.487 Y147.045 E5.15002
G1 X154.919 Y146.177 E5.18453
G1 X154.221 Y145.419 E5.2188
G1 X153.435 Y144.808 E5.25191
G1 X153.424 Y144.797 E5.25243
G1 X152.504 Y144.299 E5.28722
G1 X152.481 Y144.293 E5.28801
G1 X151.535 Y143.969 E5.32127
G1 X150.526 Y143.8 E5.3553
G1 X149.495 Y143.8 E5.38959
G1 X148.487 Y143.969 E5.42358
G1 X147.541 Y144.293 E5.45684
G1 X147.518 Y144.299 E5.45763
G1 X146.598 Y144.797 E5.49243
G1 X146.587 Y144.808 E5.49294
G1 X145.801 Y145.419 E5.52606
G1 X145.103 Y146.177 E5.56033
G1 X144.535 Y147.045 E5.59483
G1 X144.527 Y147.069 E5.59567
G1 X144.131 Y147.972 E5.62847
G1 X143.876 Y148.97 E5.66273
G1 X143.791 Y149.99 E5.69677
G1 X143.791 Y150.01 E5.69743
G1 X143.876 Y151.03 E5.73148
G1 X144.131 Y152.028 E5.76574
G1 X144.526 Y152.927 E5.7984
G1 X144.535 Y152.955 E5.79938
G1 X145.103 Y153.823 E5.83388
G1 X145.801 Y154.581 E5.86815
G1 X146.587 Y155.192 E5.90126
G1 X146.598 Y155.203 E5.90178
G1 X147.518 Y155.701 E5.93657
G1 X147.541 Y155.707 E5.93736
G1 X148.487 Y156.031 E5.97062
G1 X149.495 Y156.2 E6.00462
G0 F6000 X149.459 Y156.638
G1 F1800 E3.00462
G0 F6000 X150.575 Y156.791
G0 X150.459 Y155.336
G0 X153.449 Y210.625
G0 X153.37 Y209.154
G0 X151.595 Y209.459
;TYPE:WALL-INNER
G1 F1800 E6.00462
G1 F1500 X148.427 Y209.459 E6.10998
G1 X145.276 Y209.292 E6.21493
G1 X142.123 Y208.955 E6.3204
G1 X138.996 Y208.452 E6.42574
G1 X135.885 Y207.779 E6.53161
G1 X132.857 Y206.952 E6.63601
G1 X129.84 Y205.955 E6.74169
G1 X126.891 Y204.804 E6.84698
G1 X124.01 Y203.498 E6.95219
G1 X121.215 Y202.046 E7.05695
G1 X118.478 Y200.434 E7.1626
G1 X115.848 Y198.691 E7.26754
G1 X113.308 Y196.806 E7.37274
G1 X110.864 Y194.782 E7.47828
G1 X108.525 Y192.625 E7.58411
G1 X106.329 Y190.372 E7.68875
G1 X104.249 Y187.996 E7.79378
G1 X104.203 Y187.94 E7.79619
G1 X102.296 Y185.515 E7.8988
G1 X100.468 Y182.914 E8.00454
G1 X98.796 Y180.246 E8.10926
G1 X97.253 Y177.467 E8.21498
G1 X95.862 Y174.611 E8.32064
G1 X95.837 Y174.558 E8.32259
G1 X94.634 Y171.71 E8.42542
G1 X93.554 Y168.721 E8.53112
G1 X92.638 Y165.691 E8.63641
G1 X91.888 Y162.636 E8.74103
G1 X91.296 Y159.51 E8.84685
G1 X90.868 Y156.321 E8.95387
G1 X90.615 Y153.157 E9.05944
G1 X90.531 Y150.005 E9.16431
G1 X90.614 Y146.842 E9.26955
G1 X90.867 Y143.682 E9.37499
G1 X91.284 Y140.561 E9.47972
G1 X91.871 Y137.44 E9.58534
G1 X92.625 Y134.358 E9.69087
G1 X93.539 Y131.323 E9.7963
G1 X94.614 Y128.34 E9.90176
G1 X95.839 Y125.437 E10.00656
G1 X97.223 Y122.589 E10.11187
G1 X98.756 Y119.821 E10.21711
G1 X100.435 Y117.133 E10.32252
G1 X102.245 Y114.555 E10.42729
G1 X104.204 Y112.057 E10.53288
G1 X106.278 Y109.682 E10.63775
G1 X108.458 Y107.441 E10.74174
G1 X110.81 Y105.266 E10.84829
G1 X113.26 Y103.232 E10.9542
G1 X115.791 Y101.35 E11.0591
G1 X118.431 Y99.596 E11.16452
G1 X121.142 Y97.995 E11.26924
G1 X124.013 Y96.502 E11.37687
G1 X126.863 Y95.208 E11.48097
G1 X129.766 Y94.072 E11.58465
G1 X132.792 Y93.068 E11.69069
G1 X135.852 Y92.229 E11.79623
G1 X138.93 Y91.562 E11.90098
G1 X139.002 Y91.548 E11.90342
G1 X142.114 Y91.047 E12.00826
G1 X145.277 Y90.709 E12.11406
G1 X148.427 Y90.541 E12.21897
G1 X151.595 Y90.541 E12.32434
G1 X154.746 Y90.708 E12.42929
G1 X157.898 Y91.045 E12.53473
G1 X161.026 Y91.548 E12.6401
G1 X164.136 Y92.221 E12.74593
G1 X167.169 Y93.049 E12.8505
G1 X170.177 Y94.043 E12.95587
G1 X173.128 Y95.195 E13.06123
G1 X176.005 Y96.499 E13.16629
G1 X178.805 Y97.953 E13.27123
G1 X181.544 Y99.566 E13.37695
G1 X184.174 Y101.309 E13.48189
G1 X186.708 Y103.19 E13.58686
G1 X189.15 Y105.211 E13.69229
G1 X191.497 Y107.375 E13.79847
G1 X193.686 Y109.622 E13.9028
G1 X195.817 Y112.057 E14.01043
G1 X197.722 Y114.48 E14.11294
G1 X199.553 Y117.085 E14.21884
G1 X201.224 Y119.75 E14.32346
G1 X202.772 Y122.539 E14.42956
G1 X204.154 Y125.376 E14.53452
G1 X204.183 Y125.437 E14.53676
G1 X205.381 Y128.273 E14.63916
G1 X206.483 Y131.323 E14.74702
G1 X207.394 Y134.348 E14.8521
G1 X208.146 Y137.423 E14.95739
G1 X208.736 Y140.552 E15.06329
G1 X209.153 Y143.667 E15.16782
G1 X209.407 Y146.842 E15.27376
G1 X209.491 Y149.994 E15.37863
G1 X209.408 Y153.157 E15.48387
G1 X209.155 Y156.318 E15.58934
G1 X208.738 Y159.439 E15.69407
G1 X208.151 Y162.56 E15.79969
G1 X207.397 Y165.642 E15.90522
G1 X206.486 Y168.668 E16.01033
G1 X205.408 Y171.66 E16.11611
G1 X204.187 Y174.555 E16.22061
G1 X202.803 Y177.404 E16.32596
G1 X201.268 Y180.176 E16.43135
G1 X199.587 Y182.867 E16.53688
G1 X197.777 Y185.445 E16.64165
G1 X195.818 Y187.943 E16.74723
G1 X193.743 Y190.318 E16.85213
G1 X191.564 Y192.559 E16.95609
G1 X189.204 Y194.741 E17.06299
G1 X186.778 Y196.755 E17.16786
G1 X184.232 Y198.65 E17.27342
G1 X181.591 Y200.404 E17.37887
G1 X178.88 Y202.005 E17.48359
G1 X176.008 Y203.498 E17.59125
G1 X173.157 Y204.793 E17.6954
G1 X170.256 Y205.928 E17.79901
G1 X167.229 Y206.932 E17.90508
G1 X164.168 Y207.771 E18.01064
G1 X161.023 Y208.452 E18.11767
G1 X157.907 Y208.953 E18.22264
G1 X154.745 Y209.291 E18.32841
G1 X151.595 Y209.459 E18.43332
G0 F6000 X151.597 Y209.859
;TYPE:WALL-OUTER
G1 F1500 X148.425 Y209.859 E18.53883
G1 X145.233 Y209.69 E18.64514
G1 X142.073 Y209.352 E18.75084
G1 X138.922 Y208.845 E18.85699
G1 X135.792 Y208.168 E18.9635
G1 X132.736 Y207.334 E19.06886
G1 X129.707 Y206.333 E19.17497
G1 X126.746 Y205.177 E19.28069
G1 X123.838 Y203.859 E19.38688
G1 X121.014 Y202.392 E19.49273
G1 X118.275 Y200.779 E19.59845
G1 X115.619 Y199.019 E19.70442
G1 X113.057 Y197.118 E19.81053
G1 X110.601 Y195.083 E19.91661
G1 X108.254 Y192.919 E20.02279
G1 X106.033 Y190.641 E20.12861
G1 X103.94 Y188.25 E20.2343
G1 X103.894 Y188.194 E20.23671
G1 X101.972 Y185.749 E20.34015
G1 X100.134 Y183.135 E20.44643
G1 X98.448 Y180.444 E20.55205
G1 X96.897 Y177.65 E20.65834
G1 X95.502 Y174.786 E20.7643
G1 X95.474 Y174.725 E20.76653
G1 X94.261 Y171.853 E20.87022
G1 X93.178 Y168.857 E20.97618
G1 X93.157 Y168.793 E20.97842
G1 X92.255 Y165.807 E21.08217
G1 X91.496 Y162.713 E21.18812
G1 X90.903 Y159.584 E21.29405
G1 X90.892 Y159.516 E21.29634
G1 X90.469 Y156.353 E21.40248
G1 X90.216 Y153.189 E21.50805
G1 X90.131 Y150.006 E21.61395
G1 X90.215 Y146.81 E21.72029
G1 X90.468 Y143.65 E21.82573
G1 X90.891 Y140.487 E21.93187
G1 X91.482 Y137.345 E22.0382
G1 X92.236 Y134.263 E22.14373
G1 X93.158 Y131.202 E22.25006
G1 X94.245 Y128.185 E22.35672
G1 X95.471 Y125.279 E22.46162
G1 X96.863 Y122.413 E22.5676
G1 X98.406 Y119.627 E22.67352
G1 X100.101 Y116.913 E22.77995
G1 X101.93 Y114.308 E22.88581
G1 X103.889 Y111.81 E22.9914
G1 X105.991 Y109.403 E23.09769
G1 X108.186 Y107.147 E23.20238
G1 X110.546 Y104.965 E23.30928
G1 X113.004 Y102.924 E23.41554
G1 X115.552 Y101.029 E23.52116
G1 X118.215 Y99.26 E23.62749
G1 X120.957 Y97.64 E23.73342
G1 X123.779 Y96.171 E23.83923
G1 X123.839 Y96.142 E23.84145
G1 X126.707 Y94.84 E23.94621
G1 X129.64 Y93.692 E24.05097
G1 X132.666 Y92.688 E24.15701
G1 X132.736 Y92.667 E24.15944
G1 X135.754 Y91.841 E24.26351
G1 X138.854 Y91.169 E24.36901
G1 X138.926 Y91.155 E24.37145
G1 X142.064 Y90.65 E24.47716
G1 X145.234 Y90.311 E24.5832
G1 X148.425 Y90.141 E24.68948
G1 X151.597 Y90.141 E24.79498
G1 X154.789 Y90.31 E24.9013
G1 X157.948 Y90.648 E25.00697
G1 X161.1 Y91.155 E25.11315
G1 X164.229 Y91.832 E25.21963
G1 X167.285 Y92.666 E25.32499
G1 X170.315 Y93.667 E25.43113
G1 X173.273 Y94.822 E25.53674
G1 X176.183 Y96.141 E25.64301
G1 X179.008 Y97.608 E25.74888
G1 X181.747 Y99.221 E25.8546
G1 X184.403 Y100.981 E25.96058
G1 X186.959 Y102.878 E26.06645
G1 X189.413 Y104.91 E26.17242
G1 X191.768 Y107.081 E26.27895
G1 X193.987 Y109.358 E26.3847
G1 X196.082 Y111.75 E26.49045
G1 X196.125 Y111.802 E26.4927
G1 X198.049 Y114.25 E26.59626
G1 X199.887 Y116.864 E26.70254
G1 X201.574 Y119.556 E26.80821
G1 X203.122 Y122.345 E26.9143
G1 X203.153 Y122.405 E26.91654
G1 X204.518 Y125.209 E27.02027
G1 X204.546 Y125.27 E27.0225
G1 X205.757 Y128.137 E27.12602
G1 X206.842 Y131.138 E27.23215
G1 X206.865 Y131.207 E27.23457
G1 X207.765 Y134.187 E27.33811
